Newaita/actions/24/show-menu.svg

<svg height="24" viewBox="0 0 24 24" width="24" xmlns="http://www.w3.org/2000/svg"><g fill="#424242"><path d="m2.480469 3.660156c-.273438 0-.496094.222656-.496094.496094v.992188c0 .273437.222656.496093.496094.496093h10.296875l1.144531-1.984375zm17.136719 0c-.035157.074219-.070313.148438-.113282.21875l-1.019531 1.765625h2.851563c.273437 0 .496093-.222656.496093-.496093v-.992188c0-.273438-.222656-.496094-.496093-.496094zm-17.136719 7.441406c-.273438 0-.496094.222657-.496094.496094v.992188c0 .277344.222656.496094.496094.496094h6l1.144531-1.984376zm12.851562 0-1.144531 1.984376h7.148438c.273437 0 .496093-.21875.496093-.496094v-.992188c0-.273437-.222656-.496094-.496093-.496094zm-12.851562 7.441407c-.273438 0-.496094.222656-.496094.496093v.992188c0 .277344.222656.496094.496094.496094h1.71875c.03125-.070313.070312-.144532.109375-.214844l1.019531-1.769531zm8.558593 0-1.148437 1.984375h11.445313c.273437 0 .496093-.21875.496093-.496094v-.992188c0-.273437-.222656-.496093-.496093-.496093zm0 0"/><path d="m17.613281 2.210938c.238281.136718.316407.441406.179688.679687l-10.914063 18.90625c-.136718.234375-.441406.316406-.675781.179687-.238281-.136718-.320313-.441406-.183594-.675781l10.914063-18.90625c.140625-.238281.441406-.320312.679687-.183593zm0 0"/></g></svg>

<svg xmlns="http://www.w3.org/2000/svg" xmlns:xlink="http://www.w3.org/1999/xlink" width="24px" height="24px" viewBox="0 0 24 24" version="1.1">
<g id="surface1">
     <defs>
  <style id="current-color-scheme" type="text/css">
   .ColorScheme-Text { color:#424242; } .ColorScheme-Highlight { color:#eeeeee; }
  </style>
 </defs>
<path style="fill:currentColor" class="ColorScheme-Text" d="M 2.480469 3.660156 C 2.207031 3.660156 1.984375 3.882812 1.984375 4.15625 L 1.984375 5.148438 C 1.984375 5.421875 2.207031 5.644531 2.480469 5.644531 L 12.777344 5.644531 L 13.921875 3.660156 Z M 19.617188 3.660156 C 19.582031 3.734375 19.546875 3.808594 19.503906 3.878906 L 18.484375 5.644531 L 21.335938 5.644531 C 21.609375 5.644531 21.832031 5.421875 21.832031 5.148438 L 21.832031 4.15625 C 21.832031 3.882812 21.609375 3.660156 21.335938 3.660156 Z M 2.480469 11.101562 C 2.207031 11.101562 1.984375 11.324219 1.984375 11.597656 L 1.984375 12.589844 C 1.984375 12.867188 2.207031 13.085938 2.480469 13.085938 L 8.480469 13.085938 L 9.625 11.101562 Z M 15.332031 11.101562 L 14.1875 13.085938 L 21.335938 13.085938 C 21.609375 13.085938 21.832031 12.867188 21.832031 12.589844 L 21.832031 11.597656 C 21.832031 11.324219 21.609375 11.101562 21.335938 11.101562 Z M 2.480469 18.542969 C 2.207031 18.542969 1.984375 18.765625 1.984375 19.039062 L 1.984375 20.03125 C 1.984375 20.308594 2.207031 20.527344 2.480469 20.527344 L 4.199219 20.527344 C 4.230469 20.457031 4.269531 20.382812 4.308594 20.3125 L 5.328125 18.542969 Z M 11.039062 18.542969 L 9.890625 20.527344 L 21.335938 20.527344 C 21.609375 20.527344 21.832031 20.308594 21.832031 20.03125 L 21.832031 19.039062 C 21.832031 18.765625 21.609375 18.542969 21.335938 18.542969 Z M 11.039062 18.542969 "/>
     <defs>
  <style id="current-color-scheme" type="text/css">
   .ColorScheme-Text { color:#424242; } .ColorScheme-Highlight { color:#eeeeee; }
  </style>
 </defs>
<path style="fill:currentColor" class="ColorScheme-Text" d="M 17.613281 2.210938 C 17.851562 2.347656 17.929688 2.652344 17.792969 2.890625 L 6.878906 21.796875 C 6.742188 22.03125 6.4375 22.113281 6.203125 21.976562 C 5.964844 21.839844 5.882812 21.535156 6.019531 21.300781 L 16.933594 2.394531 C 17.074219 2.15625 17.375 2.074219 17.613281 2.210938 Z M 17.613281 2.210938 "/>
</g>
</svg>
